lib/assets/svg/button/enZA_add_to_google_wallet_add-wallet-badge.svg

<svg fill="none" height="55" viewBox="0 0 199 55" width="199" xmlns="http://www.w3.org/2000/svg" xmlns:xlink="http://www.w3.org/1999/xlink"><linearGradient id="a" gradientUnits="userSpaceOnUse" x1="37.2843" x2="18.7823" y1="34.0448" y2="55.7227"><stop offset="0" stop-color="#4285f4"/><stop offset="1" stop-color="#1b74e8"/></linearGradient><rect fill="#1f1f1f" height="54" rx="27" width="198" x=".5" y=".5"/><path d="m57 23.791h-36v-5.6454c0-3.0647 2.6422-5.6455 5.7798-5.6455h24.4404c3.1376 0 5.7798 2.5808 5.7798 5.6455z" fill="#34a853"/><path d="m57 29h-36v-6c0-3.2571 2.6422-6 5.7798-6h24.4404c3.1376 0 5.7798 2.7429 5.7798 6z" fill="#fbbc04"/><path d="m57 34h-36v-6c0-3.2571 2.6422-6 5.7798-6h24.4404c3.1376 0 5.7798 2.7429 5.7798 6z" fill="#ea4335"/><path d="m21 25.2409 22.8493 5.1616c2.6302.6452 5.5891 0 7.726-1.613l5.4247-3.8712v12.0974c0 3.0647-2.6301 5.4842-5.7534 5.4842h-24.4932c-3.1233 0-5.7534-2.4195-5.7534-5.4842z" fill="url(#a)"/><path d="m69.195 21.5 3.51-9.308h1.625l3.523 9.308h-1.573l-.858-2.392h-3.796l-.858 2.392zm3.939-6.565-1.027 2.847h2.834l-1.027-2.847-.351-1.066h-.078zm8.3803 6.773c-.598 0-1.1396-.1473-1.625-.442-.4766-.3033-.858-.7193-1.144-1.248-.2773-.5373-.416-1.1483-.416-1.833s.1387-1.2913.416-1.82c.286-.5287.6674-.9447 1.144-1.248.4854-.3033 1.027-.455 1.625-.455.5114 0 .949.1127 1.313.338.3727.2253.6457.481.819.767h.078l-.078-.923v-2.652h1.391v9.308h-1.313v-.884h-.078c-.1733.286-.4463.5417-.819.767-.364.2167-.8016.325-1.313.325zm.208-1.287c.3467 0 .6717-.091.975-.273.312-.182.559-.4377.741-.767.1907-.338.286-.7367.286-1.196s-.0953-.8537-.286-1.183c-.182-.338-.429-.598-.741-.78-.3033-.182-.6283-.273-.975-.273-.3466 0-.6716.091-.975.273-.3033.182-.5503.442-.741.78-.1906.3293-.286.7237-.286 1.183s.0954.858.286 1.196c.1907.3293.4377.585.741.767.3034.182.6284.273.975.273zm7.7393 1.287c-.598 0-1.1397-.1473-1.625-.442-.4767-.3033-.858-.7193-1.144-1.248-.2773-.5373-.416-1.1483-.416-1.833s.1387-1.2913.416-1.82c.286-.5287.6673-.9447 1.144-1.248.4853-.3033 1.027-.455 1.625-.455.5113 0 .949.1127 1.313.338.3727.2253.6457.481.819.767h.078l-.078-.923v-2.652h1.391v9.308h-1.313v-.884h-.078c-.1733.286-.4463.5417-.819.767-.364.2167-.8017.325-1.313.325zm.208-1.287c.3467 0 .6717-.091.975-.273.312-.182.559-.4377.741-.767.1907-.338.286-.7367.286-1.196s-.0953-.8537-.286-1.183c-.182-.338-.429-.598-.741-.78-.3033-.182-.6283-.273-.975-.273s-.6717.091-.975.273-.5503.442-.741.78c-.1907.3293-.286.7237-.286 1.183s.0953.858.286 1.196c.1907.3293.4377.585.741.767s.6283.273.975.273zm8.7049-.845v-3.484h-1.157v-1.222h1.157v-1.872h1.404v1.872h1.6255v1.222h-1.6255v3.185c0 .3293.065.5807.195.754.1385.1733.3685.26.6895.26.164 0 .303-.0217.416-.065.121-.0433.242-.104.364-.182v1.365c-.148.0607-.304.1083-.468.143-.165.0347-.36.052-.585.052-.6158 0-1.1055-.1777-1.4695-.533-.364-.364-.546-.8623-.546-1.495zm7.2425 2.132c-.685 0-1.287-.156-1.807-.468s-.928-.7323-1.222-1.261c-.295-.5287-.442-1.1267-.442-1.794 0-.6587.147-1.2523.442-1.781.294-.5373.702-.962 1.222-1.274s1.122-.468 1.807-.468c.676 0 1.274.156 1.794.468s.927.7367 1.222 1.274c.294.5287.442 1.1223.442 1.781 0 .6673-.148 1.2653-.442 1.794-.295.5287-.702.949-1.222 1.261s-1.118.468-1.794.468zm0-1.287c.364 0 .702-.0867 1.014-.26.312-.182.563-.4377.754-.767.199-.338.299-.741.299-1.209s-.1-.8667-.299-1.196c-.191-.338-.442-.5937-.754-.767-.312-.182-.65-.273-1.014-.273s-.707.091-1.027.273c-.312.1733-.568.429-.767.767-.191.3293-.286.728-.286 1.196s.095.871.286 1.209c.199.3293.455.585.767.767.32.1733.663.26 1.027.26z" fill="#fff"/><path d="m76.14 41.772c-.8727 0-1.6943-.1587-2.465-.476-.7593-.3173-1.4337-.7593-2.023-1.326-.5893-.578-1.054-1.2523-1.394-2.023-.3287-.782-.493-1.6263-.493-2.533s.1643-1.7453.493-2.516c.34-.782.799-1.4563 1.377-2.023.5893-.578 1.2693-1.0257 2.04-1.343s1.5923-.476 2.465-.476c.9293 0 1.785.1643 2.567.493.7933.3287 1.4563.7877 1.989 1.377l-1.292 1.275c-.3967-.442-.8727-.782-1.428-1.02-.544-.238-1.156-.357-1.836-.357-.8047 0-1.547.1927-2.227.578-.68.374-1.2297.9067-1.649 1.598-.408.68-.612 1.4847-.612 2.414s.2097 1.7397.629 2.431c.4193.68.969 1.2127 1.649 1.598.68.374 1.4223.561 2.227.561.7367 0 1.4053-.136 2.006-.408.6007-.2833 1.0823-.68 1.445-1.19.374-.51.6007-1.122.68-1.836h-4.165v-1.649h5.916c.068.306.102.629.102.969v.017c0 1.1787-.2607 2.21-.782 3.094-.51.8727-1.2183 1.5527-2.125 2.04s-1.938.731-3.094.731zm11.4749 0c-.8954 0-1.683-.204-2.363-.612s-1.2127-.9577-1.598-1.649c-.3854-.6913-.578-1.4733-.578-2.346 0-.8613.1926-1.6377.578-2.329.3853-.7027.918-1.258 1.598-1.666s1.4676-.612 2.363-.612c.884 0 1.666.204 2.346.612s1.2126.9633 1.598 1.666c.3853.6913.578 1.4677.578 2.329 0 .8727-.1927 1.6547-.578 2.346-.3854.6913-.918 1.241-1.598 1.649s-1.462.612-2.346.612zm0-1.683c.476 0 .918-.1133 1.326-.34.408-.238.7366-.5723.986-1.003.2606-.442.391-.969.391-1.581s-.1304-1.1333-.391-1.564c-.2494-.442-.578-.7763-.986-1.003-.408-.238-.85-.357-1.326-.357s-.9237.119-1.343.357c-.408.2267-.7424.561-1.003 1.003-.2494.4307-.374.952-.374 1.564s.1246 1.139.374 1.581c.2606.4307.595.765 1.003 1.003.4193.2267.867.34 1.343.34zm10.2929 1.683c-.8953 0-1.683-.204-2.363-.612s-1.2126-.9577-1.598-1.649c-.3853-.6913-.578-1.4733-.578-2.346 0-.8613.1927-1.6377.578-2.329.3854-.7027.918-1.258 1.598-1.666s1.4677-.612 2.363-.612c.884 0 1.666.204 2.3462.612.68.408 1.213.9633 1.598 1.666.385.6913.578 1.4677.578 2.329 0 .8727-.193 1.6547-.578 2.346s-.918 1.241-1.598 1.649c-.6802.408-1.4622.612-2.3462.612zm0-1.683c.476 0 .918-.1133 1.326-.34.408-.238.7367-.5723.9862-1.003.261-.442.391-.969.391-1.581s-.13-1.1333-.391-1.564c-.2495-.442-.5782-.7763-.9862-1.003-.408-.238-.85-.357-1.326-.357s-.9236.119-1.343.357c-.408.2267-.7423.561-1.003 1.003-.2493.4307-.374.952-.374 1.564s.1247 1.139.374 1.581c.2607.4307.595.765 1.003 1.003.4194.2267.867.34 1.343.34zm10.1232 5.355c-.76 0-1.417-.1247-1.972-.374-.544-.238-.986-.5497-1.326-.935-.34-.374-.584-.7593-.731-1.156l1.7-.714c.181.4533.47.8217.867 1.105.408.2947.895.442 1.462.442.793 0 1.416-.238 1.87-.714.464-.476.697-1.1503.697-2.023v-.833h-.102c-.272.408-.652.7367-1.139.986-.476.238-1.02.357-1.632.357-.737 0-1.411-.187-2.023-.561s-1.105-.8953-1.479-1.564c-.374-.68-.561-1.4733-.561-2.38 0-.918.187-1.7113.561-2.38.374-.68.867-1.207 1.479-1.581s1.286-.561 2.023-.561c.612 0 1.156.1247 1.632.374.487.2493.867.578 1.139.986h.102v-1.088h1.751v8.211c0 .9407-.187 1.7397-.561 2.397-.363.6573-.867 1.156-1.513 1.496s-1.394.51-2.244.51zm.017-5.525c.453 0 .872-.1077 1.258-.323.385-.2267.697-.5497.935-.969.238-.4307.357-.9463.357-1.547 0-.6233-.119-1.1447-.357-1.564-.238-.4307-.55-.7537-.935-.969-.386-.2153-.805-.323-1.258-.323-.454 0-.879.1133-1.275.34-.386.2153-.697.5327-.935.952s-.357.9407-.357 1.564c0 .612.119 1.1333.357 1.564.238.4193.549.7367.935.952.396.2153.821.323 1.275.323zm6.466 1.581v-12.172h1.836v12.172zm7.878.272c-.85 0-1.609-.1983-2.278-.595-.668-.3967-1.195-.9407-1.581-1.632-.374-.6913-.561-1.479-.561-2.363 0-.8273.182-1.5923.544-2.295.363-.7027.867-1.2637 1.513-1.683.658-.4307 1.411-.646 2.261-.646.896 0 1.655.1927 2.278.578.635.3853 1.117.9123 1.445 1.581.329.6687.493 1.4223.493 2.261 0 .1247-.005.238-.017.34 0 .102-.005.1813-.017.238h-6.698c.091.8613.391 1.5073.901 1.938.522.4307 1.111.646 1.768.646.59 0 1.077-.1303 1.462-.391.386-.272.692-.6063.918-1.003l1.513.731c-.374.68-.884 1.2353-1.53 1.666-.646.4193-1.45.629-2.414.629zm-.085-7.65c-.612 0-1.133.187-1.564.561-.43.374-.719.8727-.867 1.496h4.811c-.022-.2947-.119-.6007-.289-.918s-.43-.5837-.782-.799c-.34-.2267-.776-.34-1.309-.34zm11.672 7.378-3.264-12.172h2.074l1.938 7.905.204 1.054h.102l.255-1.054 2.448-7.905h1.87l2.346 7.905.255 1.037h.102l.204-1.037 1.938-7.905h2.057l-3.213 12.172h-1.972l-2.329-8.075-.272-1.139h-.102l-.289 1.139-2.431 8.075zm15.943.272c-.623 0-1.179-.119-1.666-.357-.487-.2493-.867-.595-1.139-1.037s-.408-.9463-.408-1.513c0-.612.159-1.1333.476-1.564.329-.442.765-.7763 1.309-1.003s1.145-.34 1.802-.34c.544 0 1.02.051 1.428.153.419.102.737.2097.952.323v-.459c0-.5667-.204-1.02-.612-1.36s-.935-.51-1.581-.51c-.442 0-.861.102-1.258.306-.397.1927-.714.459-.952.799l-1.258-.969c.374-.5213.867-.9293 1.479-1.224.623-.306 1.303-.459 2.04-.459 1.258 0 2.227.3117 2.907.935.68.612 1.02 1.4733 1.02 2.584v5.423h-1.785v-1.071h-.102c-.227.3513-.567.663-1.02.935s-.997.408-1.632.408zm.323-1.496c.476 0 .895-.1133 1.258-.34s.646-.5213.85-.884c.215-.374.323-.7763.323-1.207-.261-.1473-.567-.2663-.918-.357-.351-.102-.725-.153-1.122-.153-.748 0-1.281.153-1.598.459-.317.2947-.476.6573-.476 1.088 0 .408.153.7423.459 1.003s.714.391 1.224.391zm6.254 1.224v-12.172h1.836v12.172zm4.018 0v-12.172h1.836v12.172zm7.878.272c-.85 0-1.609-.1983-2.278-.595-.668-.3967-1.195-.9407-1.581-1.632-.374-.6913-.561-1.479-.561-2.363 0-.8273.182-1.5923.544-2.295.363-.7027.867-1.2637 1.513-1.683.658-.4307 1.411-.646 2.261-.646.896 0 1.655.1927 2.278.578.635.3853 1.117.9123 1.445 1.581.329.6687.493 1.4223.493 2.261 0 .1247-.005.238-.017.34 0 .102-.005.1813-.017.238h-6.698c.091.8613.391 1.5073.901 1.938.522.4307 1.111.646 1.768.646.59 0 1.077-.1303 1.462-.391.386-.272.692-.6063.918-1.003l1.513.731c-.374.68-.884 1.2353-1.53 1.666-.646.4193-1.45.629-2.414.629zm-.085-7.65c-.612 0-1.133.187-1.564.561-.43.374-.719.8727-.867 1.496h4.811c-.022-.2947-.119-.6007-.289-.918s-.43-.5837-.782-.799c-.34-.2267-.776-.34-1.309-.34zm6.572 4.862v-4.556h-1.513v-1.598h1.513v-2.448h1.836v2.448h2.125v1.598h-2.125v4.165c0 .4307.085.7593.255.986.181.2267.481.34.901.34.215 0 .396-.0283.544-.085.158-.0567.317-.136.476-.238v1.785c-.193.0793-.397.1417-.612.187-.216.0453-.471.068-.765.068-.805 0-1.445-.2323-1.921-.697-.476-.476-.714-1.1277-.714-1.955z" fill="#fff"/><rect height="54" rx="27" stroke="#747775" width="198" x=".5" y=".5"/></svg>

<svg width="199" height="55" viewBox="0 0 199 55" fill="none" xmlns="http://www.w3.org/2000/svg">
<rect x="0.5" y="0.5" width="198" height="54" rx="27" fill="#1F1F1F"/>
<path d="M57 23.791H21V18.1456C21 15.0809 23.6422 12.5001 26.7798 12.5001H51.2202C54.3578 12.5001 57 15.0809 57 18.1456V23.791Z" fill="#34A853"/>
<path d="M57 29H21V23C21 19.7429 23.6422 17 26.7798 17H51.2202C54.3578 17 57 19.7429 57 23V29Z" fill="#FBBC04"/>
<path d="M57 34H21V28C21 24.7429 23.6422 22 26.7798 22H51.2202C54.3578 22 57 24.7429 57 28V34Z" fill="#EA4335"/>
<path d="M21 25.2409L43.8493 30.4025C46.4795 31.0477 49.4384 30.4025 51.5753 28.7895L57 24.9183V37.0157C57 40.0804 54.3699 42.4999 51.2466 42.4999H26.7534C23.6301 42.4999 21 40.0804 21 37.0157V25.2409Z" fill="url(#paint0_linear_1819_24149)"/>
<path d="M69.195 21.5L72.705 12.192H74.33L77.853 21.5H76.28L75.422 19.108H71.626L70.768 21.5H69.195ZM73.134 14.935L72.107 17.782H74.941L73.914 14.935L73.563 13.869H73.485L73.134 14.935ZM81.5143 21.708C80.9163 21.708 80.3747 21.5607 79.8893 21.266C79.4127 20.9627 79.0313 20.5467 78.7453 20.018C78.468 19.4807 78.3293 18.8697 78.3293 18.185C78.3293 17.5003 78.468 16.8937 78.7453 16.365C79.0313 15.8363 79.4127 15.4203 79.8893 15.117C80.3747 14.8137 80.9163 14.662 81.5143 14.662C82.0257 14.662 82.4633 14.7747 82.8273 15C83.2 15.2253 83.473 15.481 83.6463 15.767H83.7243L83.6463 14.844V12.192H85.0373V21.5H83.7243V20.616H83.6463C83.473 20.902 83.2 21.1577 82.8273 21.383C82.4633 21.5997 82.0257 21.708 81.5143 21.708ZM81.7223 20.421C82.069 20.421 82.394 20.33 82.6973 20.148C83.0093 19.966 83.2563 19.7103 83.4383 19.381C83.629 19.043 83.7243 18.6443 83.7243 18.185C83.7243 17.7257 83.629 17.3313 83.4383 17.002C83.2563 16.664 83.0093 16.404 82.6973 16.222C82.394 16.04 82.069 15.949 81.7223 15.949C81.3757 15.949 81.0507 16.04 80.7473 16.222C80.444 16.404 80.197 16.664 80.0063 17.002C79.8157 17.3313 79.7203 17.7257 79.7203 18.185C79.7203 18.6443 79.8157 19.043 80.0063 19.381C80.197 19.7103 80.444 19.966 80.7473 20.148C81.0507 20.33 81.3757 20.421 81.7223 20.421ZM89.4616 21.708C88.8636 21.708 88.3219 21.5607 87.8366 21.266C87.3599 20.9627 86.9786 20.5467 86.6926 20.018C86.4153 19.4807 86.2766 18.8697 86.2766 18.185C86.2766 17.5003 86.4153 16.8937 86.6926 16.365C86.9786 15.8363 87.3599 15.4203 87.8366 15.117C88.3219 14.8137 88.8636 14.662 89.4616 14.662C89.9729 14.662 90.4106 14.7747 90.7746 15C91.1473 15.2253 91.4203 15.481 91.5936 15.767H91.6716L91.5936 14.844V12.192H92.9846V21.5H91.6716V20.616H91.5936C91.4203 20.902 91.1473 21.1577 90.7746 21.383C90.4106 21.5997 89.9729 21.708 89.4616 21.708ZM89.6696 20.421C90.0163 20.421 90.3413 20.33 90.6446 20.148C90.9566 19.966 91.2036 19.7103 91.3856 19.381C91.5763 19.043 91.6716 18.6443 91.6716 18.185C91.6716 17.7257 91.5763 17.3313 91.3856 17.002C91.2036 16.664 90.9566 16.404 90.6446 16.222C90.3413 16.04 90.0163 15.949 89.6696 15.949C89.3229 15.949 88.9979 16.04 88.6946 16.222C88.3913 16.404 88.1443 16.664 87.9536 17.002C87.7629 17.3313 87.6676 17.7257 87.6676 18.185C87.6676 18.6443 87.7629 19.043 87.9536 19.381C88.1443 19.7103 88.3913 19.966 88.6946 20.148C88.9979 20.33 89.3229 20.421 89.6696 20.421ZM98.3745 19.576V16.092H97.2175V14.87H98.3745V12.998H99.7785V14.87H101.404V16.092H99.7785V19.277C99.7785 19.6063 99.8435 19.8577 99.9735 20.031C100.112 20.2043 100.342 20.291 100.663 20.291C100.827 20.291 100.966 20.2693 101.079 20.226C101.2 20.1827 101.321 20.122 101.443 20.044V21.409C101.295 21.4697 101.139 21.5173 100.975 21.552C100.81 21.5867 100.615 21.604 100.39 21.604C99.7742 21.604 99.2845 21.4263 98.9205 21.071C98.5565 20.707 98.3745 20.2087 98.3745 19.576ZM105.617 21.708C104.932 21.708 104.33 21.552 103.81 21.24C103.29 20.928 102.882 20.5077 102.588 19.979C102.293 19.4503 102.146 18.8523 102.146 18.185C102.146 17.5263 102.293 16.9327 102.588 16.404C102.882 15.8667 103.29 15.442 103.81 15.13C104.33 14.818 104.932 14.662 105.617 14.662C106.293 14.662 106.891 14.818 107.411 15.13C107.931 15.442 108.338 15.8667 108.633 16.404C108.927 16.9327 109.075 17.5263 109.075 18.185C109.075 18.8523 108.927 19.4503 108.633 19.979C108.338 20.5077 107.931 20.928 107.411 21.24C106.891 21.552 106.293 21.708 105.617 21.708ZM105.617 20.421C105.981 20.421 106.319 20.3343 106.631 20.161C106.943 19.979 107.194 19.7233 107.385 19.394C107.584 19.056 107.684 18.653 107.684 18.185C107.684 17.717 107.584 17.3183 107.385 16.989C107.194 16.651 106.943 16.3953 106.631 16.222C106.319 16.04 105.981 15.949 105.617 15.949C105.253 15.949 104.91 16.04 104.59 16.222C104.278 16.3953 104.022 16.651 103.823 16.989C103.632 17.3183 103.537 17.717 103.537 18.185C103.537 18.653 103.632 19.056 103.823 19.394C104.022 19.7233 104.278 19.979 104.59 20.161C104.91 20.3343 105.253 20.421 105.617 20.421Z" fill="white"/>
<path d="M76.14 41.772C75.2673 41.772 74.4457 41.6133 73.675 41.296C72.9157 40.9787 72.2413 40.5367 71.652 39.97C71.0627 39.392 70.598 38.7177 70.258 37.947C69.9293 37.165 69.765 36.3207 69.765 35.414C69.765 34.5073 69.9293 33.6687 70.258 32.898C70.598 32.116 71.057 31.4417 71.635 30.875C72.2243 30.297 72.9043 29.8493 73.675 29.532C74.4457 29.2147 75.2673 29.056 76.14 29.056C77.0693 29.056 77.925 29.2203 78.707 29.549C79.5003 29.8777 80.1633 30.3367 80.696 30.926L79.404 32.201C79.0073 31.759 78.5313 31.419 77.976 31.181C77.432 30.943 76.82 30.824 76.14 30.824C75.3353 30.824 74.593 31.0167 73.913 31.402C73.233 31.776 72.6833 32.3087 72.264 33C71.856 33.68 71.652 34.4847 71.652 35.414C71.652 36.3433 71.8617 37.1537 72.281 37.845C72.7003 38.525 73.25 39.0577 73.93 39.443C74.61 39.817 75.3523 40.004 76.157 40.004C76.8937 40.004 77.5623 39.868 78.163 39.596C78.7637 39.3127 79.2453 38.916 79.608 38.406C79.982 37.896 80.2087 37.284 80.288 36.57H76.123V34.921H82.039C82.107 35.227 82.141 35.55 82.141 35.89V35.907C82.141 37.0857 81.8803 38.117 81.359 39.001C80.849 39.8737 80.1407 40.5537 79.234 41.041C78.3273 41.5283 77.296 41.772 76.14 41.772ZM87.6149 41.772C86.7195 41.772 85.9319 41.568 85.2519 41.16C84.5719 40.752 84.0392 40.2023 83.6539 39.511C83.2685 38.8197 83.0759 38.0377 83.0759 37.165C83.0759 36.3037 83.2685 35.5273 83.6539 34.836C84.0392 34.1333 84.5719 33.578 85.2519 33.17C85.9319 32.762 86.7195 32.558 87.6149 32.558C88.4989 32.558 89.2809 32.762 89.9609 33.17C90.6409 33.578 91.1735 34.1333 91.5589 34.836C91.9442 35.5273 92.1369 36.3037 92.1369 37.165C92.1369 38.0377 91.9442 38.8197 91.5589 39.511C91.1735 40.2023 90.6409 40.752 89.9609 41.16C89.2809 41.568 88.4989 41.772 87.6149 41.772ZM87.6149 40.089C88.0909 40.089 88.5329 39.9757 88.9409 39.749C89.3489 39.511 89.6775 39.1767 89.9269 38.746C90.1875 38.304 90.3179 37.777 90.3179 37.165C90.3179 36.553 90.1875 36.0317 89.9269 35.601C89.6775 35.159 89.3489 34.8247 88.9409 34.598C88.5329 34.36 88.0909 34.241 87.6149 34.241C87.1389 34.241 86.6912 34.36 86.2719 34.598C85.8639 34.8247 85.5295 35.159 85.2689 35.601C85.0195 36.0317 84.8949 36.553 84.8949 37.165C84.8949 37.777 85.0195 38.304 85.2689 38.746C85.5295 39.1767 85.8639 39.511 86.2719 39.749C86.6912 39.9757 87.1389 40.089 87.6149 40.089ZM97.9078 41.772C97.0125 41.772 96.2248 41.568 95.5448 41.16C94.8648 40.752 94.3322 40.2023 93.9468 39.511C93.5615 38.8197 93.3688 38.0377 93.3688 37.165C93.3688 36.3037 93.5615 35.5273 93.9468 34.836C94.3322 34.1333 94.8648 33.578 95.5448 33.17C96.2248 32.762 97.0125 32.558 97.9078 32.558C98.7918 32.558 99.5738 32.762 100.254 33.17C100.934 33.578 101.467 34.1333 101.852 34.836C102.237 35.5273 102.43 36.3037 102.43 37.165C102.43 38.0377 102.237 38.8197 101.852 39.511C101.467 40.2023 100.934 40.752 100.254 41.16C99.5738 41.568 98.7918 41.772 97.9078 41.772ZM97.9078 40.089C98.3838 40.089 98.8258 39.9757 99.2338 39.749C99.6418 39.511 99.9705 39.1767 100.22 38.746C100.481 38.304 100.611 37.777 100.611 37.165C100.611 36.553 100.481 36.0317 100.22 35.601C99.9705 35.159 99.6418 34.8247 99.2338 34.598C98.8258 34.36 98.3838 34.241 97.9078 34.241C97.4318 34.241 96.9842 34.36 96.5648 34.598C96.1568 34.8247 95.8225 35.159 95.5618 35.601C95.3125 36.0317 95.1878 36.553 95.1878 37.165C95.1878 37.777 95.3125 38.304 95.5618 38.746C95.8225 39.1767 96.1568 39.511 96.5648 39.749C96.9842 39.9757 97.4318 40.089 97.9078 40.089ZM108.031 45.444C107.271 45.444 106.614 45.3193 106.059 45.07C105.515 44.832 105.073 44.5203 104.733 44.135C104.393 43.761 104.149 43.3757 104.002 42.979L105.702 42.265C105.883 42.7183 106.172 43.0867 106.569 43.37C106.977 43.6647 107.464 43.812 108.031 43.812C108.824 43.812 109.447 43.574 109.901 43.098C110.365 42.622 110.598 41.9477 110.598 41.075V40.242H110.496C110.224 40.65 109.844 40.9787 109.357 41.228C108.881 41.466 108.337 41.585 107.725 41.585C106.988 41.585 106.314 41.398 105.702 41.024C105.09 40.65 104.597 40.1287 104.223 39.46C103.849 38.78 103.662 37.9867 103.662 37.08C103.662 36.162 103.849 35.3687 104.223 34.7C104.597 34.02 105.09 33.493 105.702 33.119C106.314 32.745 106.988 32.558 107.725 32.558C108.337 32.558 108.881 32.6827 109.357 32.932C109.844 33.1813 110.224 33.51 110.496 33.918H110.598V32.83H112.349V41.041C112.349 41.9817 112.162 42.7807 111.788 43.438C111.425 44.0953 110.921 44.594 110.275 44.934C109.629 45.274 108.881 45.444 108.031 45.444ZM108.048 39.919C108.501 39.919 108.92 39.8113 109.306 39.596C109.691 39.3693 110.003 39.0463 110.241 38.627C110.479 38.1963 110.598 37.6807 110.598 37.08C110.598 36.4567 110.479 35.9353 110.241 35.516C110.003 35.0853 109.691 34.7623 109.306 34.547C108.92 34.3317 108.501 34.224 108.048 34.224C107.594 34.224 107.169 34.3373 106.773 34.564C106.387 34.7793 106.076 35.0967 105.838 35.516C105.6 35.9353 105.481 36.4567 105.481 37.08C105.481 37.692 105.6 38.2133 105.838 38.644C106.076 39.0633 106.387 39.3807 106.773 39.596C107.169 39.8113 107.594 39.919 108.048 39.919ZM114.514 41.5V29.328H116.35V41.5H114.514ZM122.392 41.772C121.542 41.772 120.783 41.5737 120.114 41.177C119.446 40.7803 118.919 40.2363 118.533 39.545C118.159 38.8537 117.972 38.066 117.972 37.182C117.972 36.3547 118.154 35.5897 118.516 34.887C118.879 34.1843 119.383 33.6233 120.029 33.204C120.687 32.7733 121.44 32.558 122.29 32.558C123.186 32.558 123.945 32.7507 124.568 33.136C125.203 33.5213 125.685 34.0483 126.013 34.717C126.342 35.3857 126.506 36.1393 126.506 36.978C126.506 37.1027 126.501 37.216 126.489 37.318C126.489 37.42 126.484 37.4993 126.472 37.556H119.774C119.865 38.4173 120.165 39.0633 120.675 39.494C121.197 39.9247 121.786 40.14 122.443 40.14C123.033 40.14 123.52 40.0097 123.905 39.749C124.291 39.477 124.597 39.1427 124.823 38.746L126.336 39.477C125.962 40.157 125.452 40.7123 124.806 41.143C124.16 41.5623 123.356 41.772 122.392 41.772ZM122.307 34.122C121.695 34.122 121.174 34.309 120.743 34.683C120.313 35.057 120.024 35.5557 119.876 36.179H124.687C124.665 35.8843 124.568 35.5783 124.398 35.261C124.228 34.9437 123.968 34.6773 123.616 34.462C123.276 34.2353 122.84 34.122 122.307 34.122ZM133.979 41.5L130.715 29.328H132.789L134.727 37.233L134.931 38.287H135.033L135.288 37.233L137.736 29.328H139.606L141.952 37.233L142.207 38.27H142.309L142.513 37.233L144.451 29.328H146.508L143.295 41.5H141.323L138.994 33.425L138.722 32.286H138.62L138.331 33.425L135.9 41.5H133.979ZM149.922 41.772C149.299 41.772 148.743 41.653 148.256 41.415C147.769 41.1657 147.389 40.82 147.117 40.378C146.845 39.936 146.709 39.4317 146.709 38.865C146.709 38.253 146.868 37.7317 147.185 37.301C147.514 36.859 147.95 36.5247 148.494 36.298C149.038 36.0713 149.639 35.958 150.296 35.958C150.84 35.958 151.316 36.009 151.724 36.111C152.143 36.213 152.461 36.3207 152.676 36.434V35.975C152.676 35.4083 152.472 34.955 152.064 34.615C151.656 34.275 151.129 34.105 150.483 34.105C150.041 34.105 149.622 34.207 149.225 34.411C148.828 34.6037 148.511 34.87 148.273 35.21L147.015 34.241C147.389 33.7197 147.882 33.3117 148.494 33.017C149.117 32.711 149.797 32.558 150.534 32.558C151.792 32.558 152.761 32.8697 153.441 33.493C154.121 34.105 154.461 34.9663 154.461 36.077V41.5H152.676V40.429H152.574C152.347 40.7803 152.007 41.092 151.554 41.364C151.101 41.636 150.557 41.772 149.922 41.772ZM150.245 40.276C150.721 40.276 151.14 40.1627 151.503 39.936C151.866 39.7093 152.149 39.4147 152.353 39.052C152.568 38.678 152.676 38.2757 152.676 37.845C152.415 37.6977 152.109 37.5787 151.758 37.488C151.407 37.386 151.033 37.335 150.636 37.335C149.888 37.335 149.355 37.488 149.038 37.794C148.721 38.0887 148.562 38.4513 148.562 38.882C148.562 39.29 148.715 39.6243 149.021 39.885C149.327 40.1457 149.735 40.276 150.245 40.276ZM156.499 41.5V29.328H158.335V41.5H156.499ZM160.517 41.5V29.328H162.353V41.5H160.517ZM168.395 41.772C167.545 41.772 166.786 41.5737 166.117 41.177C165.449 40.7803 164.922 40.2363 164.536 39.545C164.162 38.8537 163.975 38.066 163.975 37.182C163.975 36.3547 164.157 35.5897 164.519 34.887C164.882 34.1843 165.386 33.6233 166.032 33.204C166.69 32.7733 167.443 32.558 168.293 32.558C169.189 32.558 169.948 32.7507 170.571 33.136C171.206 33.5213 171.688 34.0483 172.016 34.717C172.345 35.3857 172.509 36.1393 172.509 36.978C172.509 37.1027 172.504 37.216 172.492 37.318C172.492 37.42 172.487 37.4993 172.475 37.556H165.777C165.868 38.4173 166.168 39.0633 166.678 39.494C167.2 39.9247 167.789 40.14 168.446 40.14C169.036 40.14 169.523 40.0097 169.908 39.749C170.294 39.477 170.6 39.1427 170.826 38.746L172.339 39.477C171.965 40.157 171.455 40.7123 170.809 41.143C170.163 41.5623 169.359 41.772 168.395 41.772ZM168.31 34.122C167.698 34.122 167.177 34.309 166.746 34.683C166.316 35.057 166.027 35.5557 165.879 36.179H170.69C170.668 35.8843 170.571 35.5783 170.401 35.261C170.231 34.9437 169.971 34.6773 169.619 34.462C169.279 34.2353 168.843 34.122 168.31 34.122ZM174.882 38.984V34.428H173.369V32.83H174.882V30.382H176.718V32.83H178.843V34.428H176.718V38.593C176.718 39.0237 176.803 39.3523 176.973 39.579C177.154 39.8057 177.454 39.919 177.874 39.919C178.089 39.919 178.27 39.8907 178.418 39.834C178.576 39.7773 178.735 39.698 178.894 39.596V41.381C178.701 41.4603 178.497 41.5227 178.282 41.568C178.066 41.6133 177.811 41.636 177.517 41.636C176.712 41.636 176.072 41.4037 175.596 40.939C175.12 40.463 174.882 39.8113 174.882 38.984Z" fill="white"/>
<rect x="0.5" y="0.5" width="198" height="54" rx="27" stroke="#747775"/>
<defs>
<linearGradient id="paint0_linear_1819_24149" x1="37.2843" y1="34.0448" x2="18.7823" y2="55.7227" gradientUnits="userSpaceOnUse">
<stop stop-color="#4285F4"/>
<stop offset="1" stop-color="#1B74E8"/>
</linearGradient>
</defs>
</svg>
